X:1
T:Eifionydd, 87.87 D
T:Eifionydd, 87.87 D
T:John Ambrose Lloyd, Sr. (1815-1874)
T:Public Domain Courtesy of the Cyber Hymnal™
C:John Ambrose Lloyd, Sr. (1815-1874)
Z:Public Domain
Z:Courtesy of the Cyber Hymnal™
%%score ( 1 2 ) ( 3 4 )
L:1/8
Q:1/4=105
M:4/4
K:C
V:1 treble 
V:2 treble 
V:3 bass 
V:4 bass 
V:1
 [EA]2 (AB) [Ec]2 (BA) | [E^G]2 A2 [EB]2 [B,E]2 | [EA]2 (^GA) [FB]2 ([EA][FB]) | c2 z [CA]4 x | %4
 [CA]2 ([CA][DB]) [Ec]2 (BA) x | [E^G]2 A2 [EB]2 [B,E]2 | A2 ([D^G][CA]) B2 ([EA][DB]) | %7
 c2 [EB-][DB] [CA]4 | [Ec]2 (cd) [Ee]2 [Ec]2 | [EB]2 [Ec]2 [Fd]2 B2 | A2 (AB) [Ec]2 [Ee]2 | %11
 [Fd]2 [Ec]2 [EB]4 | [Ee]2 (ed) [Ec]2 [^GB]2 | (A-[EA]) ([E^G]A) [GB]2 E2 | %14
 [EA]2 ([D^G][EA]) [FB]2 ([EA][FB]) | c2 z [CA]4 x |] %16
V:2
 x2 E2 x F2 x | x2 (E^D) x4 | x2 E2 x4 | E3 B2 D x2 | x6 F2 x | x2 (E^D) x4 | (CE) x D F x3 | %7
 CE- x6 | x2 E2 x4 | x6 (ED) | (CD) E2 x4 | x8 | x2 E2 x4 | x6 E2 | x8 | E3 B2 D x2 |] %16
V:3
 [A,C]2 (CD) [A,E]2 (DC) | [E,B,]2 [F,A,]2 [E,^G,]2 G,2 | %2
 [C,A,]2 ([B,,B,][A,,C]) [D,B,]2 ([C,E,][D,A,]) | [E,A,]2 [E,^G,]2 [A,,A,]4 | %4
 [A,,A,]2 [A,,A,]2 z (DC) x2 | [E,B,]2 [F,A,]2 [E,^G,]2 G,2 | %6
 [C,A,]2 ([B,,B,][A,,C]) [D,B,]2 [C,E,][D,F,] | z A,-[E,-A,][E,^G,] [A,,A,]4 | %8
 A,2 [A,C]2 [^G,B,]2 A,2 | [E,^G,]2 [A,,A,]2 [D,A,]2 [E,G,]2 | (A,B,) (CD) [A,E]2 [C,A,]2 | %11
 [D,A,]2 [A,,A,]2 [E,^G,]4 | [C,A,]2 [E,^G,]2 A,2 B,2 | (CE) ([B,,D][A,,C]) [E,B,]2 ^G,2 | %14
 [C,A,]2 ([B,,B,][A,,C]) [D,B,]2 ([C,E,][D,A,]) | [E,A,]2 [E,^G,]2 [A,,A,]4 |] %16
V:4
 x2 A,2 x D,2 x | x6 (E,D,) | x8 | x8 | x4 A,2 E D,2 | x6 (E,D,) | x8 | E,2 x6 | A,2 x2 A,2 x2 | %9
 x8 | A,,2 A,,2 x4 | x8 | x4 A,2 E,D, | C,2 x3 (E,D,) x | x8 | x8 |] %16

